; G-Code generated by Simplify3D(R) Version 4.1.2
; Aug 30, 2020 at 3:02:12 PM
; Settings Summary
;   processName,PLA - to octoprint
;   applyToModels,27de41dd-b64d-48f0-bdda-c488a0c18556
;   profileName,FlashForge Creator Pro (PLA Andy)
;   profileVersion,2018-01-19 08:00:00
;   baseProfile,FlashForge Creator Pro (modified)
;   printMaterial,PLA
;   printQuality,Medium
;   printExtruders,Right Extruder Only
;   extruderName,Right Extruder,Left Extruder
;   extruderToolheadNumber,0,1
;   extruderDiameter,0.4,0.4
;   extruderAutoWidth,0,0
;   extruderWidth,0.4,0.4
;   extrusionMultiplier,0.9,0.9
;   extruderUseRetract,1,1
;   extruderRetractionDistance,1,1
;   extruderExtraRestartDistance,0,0
;   extruderRetractionZLift,0,0
;   extruderRetractionSpeed,1200,1200
;   extruderUseCoasting,0,0
;   extruderCoastingDistance,0.2,0.2
;   extruderUseWipe,0,0
;   extruderWipeDistance,5,5
;   primaryExtruder,0
;   layerHeight,0.2
;   topSolidLayers,3
;   bottomSolidLayers,3
;   perimeterOutlines,2
;   printPerimetersInsideOut,1
;   startPointOption,2
;   startPointOriginX,0
;   startPointOriginY,0
;   sequentialIslands,0
;   spiralVaseMode,0
;   firstLayerHeightPercentage,90
;   firstLayerWidthPercentage,100
;   firstLayerUnderspeed,0.5
;   useRaft,0
;   raftExtruder,0
;   raftTopLayers,3
;   raftBaseLayers,2
;   raftOffset,3
;   raftSeparationDistance,0.14
;   raftTopInfill,100
;   aboveRaftSpeedMultiplier,0.3
;   useSkirt,1
;   skirtExtruder,0
;   skirtLayers,1
;   skirtOutlines,2
;   skirtOffset,2
;   usePrimePillar,0
;   primePillarExtruder,999
;   primePillarWidth,12
;   primePillarLocation,7
;   primePillarSpeedMultiplier,1
;   useOozeShield,0
;   oozeShieldExtruder,999
;   oozeShieldOffset,2
;   oozeShieldOutlines,1
;   oozeShieldSidewallShape,1
;   oozeShieldSidewallAngle,30
;   oozeShieldSpeedMultiplier,1
;   infillExtruder,0
;   internalInfillPattern,Rectilinear
;   externalInfillPattern,Rectilinear
;   infillPercentage,20
;   outlineOverlapPercentage,20
;   infillExtrusionWidthPercentage,100
;   minInfillLength,5
;   infillLayerInterval,1
;   internalInfillAngles,45,-45
;   overlapInternalInfillAngles,0
;   externalInfillAngles,45,-45
;   generateSupport,1
;   supportExtruder,0
;   supportInfillPercentage,35
;   supportExtraInflation,0
;   supportBaseLayers,0
;   denseSupportExtruder,0
;   denseSupportLayers,0
;   denseSupportInfillPercentage,70
;   supportLayerInterval,1
;   supportHorizontalPartOffset,0.3
;   supportUpperSeparationLayers,1
;   supportLowerSeparationLayers,1
;   supportType,0
;   supportGridSpacing,4
;   maxOverhangAngle,45
;   supportAngles,0
;   temperatureName,Right Extruder,Left Extruder,Heated Build Platform
;   temperatureNumber,0,1,0
;   temperatureSetpointCount,1,1,1
;   temperatureSetpointLayers,1,1,1
;   temperatureSetpointTemperatures,225,0,70
;   temperatureStabilizeAtStartup,0,0,0
;   temperatureHeatedBed,0,0,1
;   fanLayers,1,2
;   fanSpeeds,0,100
;   blipFanToFullPower,0
;   adjustSpeedForCooling,1
;   minSpeedLayerTime,15
;   minCoolingSpeedSlowdown,20
;   increaseFanForCooling,0
;   minFanLayerTime,45
;   maxCoolingFanSpeed,100
;   increaseFanForBridging,1
;   bridgingFanSpeed,100
;   use5D,1
;   relativeEdistances,1
;   allowEaxisZeroing,0
;   independentExtruderAxes,1
;   includeM10123,0
;   stickySupport,1
;   applyToolheadOffsets,0
;   gcodeXoffset,0
;   gcodeYoffset,0
;   gcodeZoffset,0
;   overrideMachineDefinition,1
;   machineTypeOverride,0
;   strokeXoverride,225
;   strokeYoverride,145
;   strokeZoverride,150
;   originOffsetXoverride,112.5
;   originOffsetYoverride,72.5
;   originOffsetZoverride,0
;   homeXdirOverride,1
;   homeYdirOverride,1
;   homeZdirOverride,-1
;   flipXoverride,1
;   flipYoverride,-1
;   flipZoverride,1
;   toolheadOffsets,0,0|34,0|0,0|0,0|0,0|0,0
;   overrideFirmwareConfiguration,1
;   firmwareTypeOverride,MakerBot/Sailfish Firmware
;   GPXconfigOverride,r1d
;   baudRateOverride,115200
;   overridePrinterModels,1
;   printerModelsOverride,FlashForge_CreatorPro.stl
;   startingGcode,; **** Replicator 1 dual start.gcode ****,M73 P0 ; enable build progress,G162 X Y F3000 ; home XY maximum,G161 Z F1200 ; home Z minimum,G92 Z-5 ; set Z to -5,G1 Z0 ; move Z to 0,G161 Z F100 ; home Z slowly,M132 X Y Z A B ; recall home offsets,M135 T0 ; load right extruder offsets,G1 X150 Y-70 Z30 F9000 ; move to wait position right hand side of the table,G130 X20 Y20 Z20 A20 B20 ; lower stepper Vrefs while heating,M126 S[fan_speed_pwm],M140 S[bed0_temperature] T0,M134 T0 ; stabilize bed temperature,M104 S[extruder0_temperature] T0,M133 T0 ; stabilize right extruder temperature,G130 X127 Y127 Z40 A127 B127 ; default stepper Vrefs,G92 A0 B0 ; zero extruders,G1 Z0.4 ; position nozzle,G1 X110 Y-70 E25 F300 ; purge nozzle,G1 X120 Y-70 Z0.15 F1200 ; slow wipe,G1 X110 Y-70 Z0.5 F1200 ; lift,G92 A0 B0 ; zero extruders,M73 P1 ;@body (notify GPX body has started),; **** end of start.gcode ****
;   layerChangeGcode,
;   retractionGcode,
;   toolChangeGcode,
;   endingGcode,; **** Replicator 1 dual end.gcode ****,M73 P100 ; end build progress,G1 Z150 F1000 ; send Z axis to bottom of machine,M140 S0 T0 ; cool down HBP,M104 S0 T0 ; cool down right extruder,M104 S0 T1 ; cool down left extruder,M127 ; stop blower fan,G162 X Y F3000 ; home XY maximum,M18 ; disable stepper,M72 P1 ; play Ta-Da song,; **** end of end.gcode ****
;   exportFileFormat,gcode
;   celebration,0
;   celebrationSong,Random Song
;   postProcessing,curl -k -H "X-Api-Key: 85DEF5B2510A4D0EA04F35E17A7FFD7E" -F "select=false" -F "print=false" -F "file=@[output_filepath]" "http://192.168.0.125/api/files/local" {STRIP "; postProcessing"}
;   defaultSpeed,3600
;   outlineUnderspeed,0.5
;   solidInfillUnderspeed,0.8
;   supportUnderspeed,0.8
;   rapidXYspeed,4200
;   rapidZspeed,1200
;   minBridgingArea,50
;   bridgingExtraInflation,0
;   bridgingExtrusionMultiplier,1
;   bridgingSpeedMultiplier,0.8
;   useFixedBridgingAngle,0
;   fixedBridgingAngle,0
;   applyBridgingToPerimeters,0
;   filamentDiameters,1.75|1.75|1.75|1.75|1.75|1.75
;   filamentPricesPerKg,46|46|46|46|46|46
;   filamentDensities,1.25|1.25|1.25|1.25|1.25|1.25
;   useMinPrintHeight,0
;   minPrintHeight,0
;   useMaxPrintHeight,0
;   maxPrintHeight,0
;   useDiaphragm,0
;   diaphragmLayerInterval,20
;   robustSlicing,1
;   mergeAllIntoSolid,0
;   onlyRetractWhenCrossingOutline,1
;   retractBetweenLayers,1
;   useRetractionMinTravel,0
;   retractionMinTravel,3
;   retractWhileWiping,0
;   onlyWipeOutlines,1
;   avoidCrossingOutline,0
;   maxMovementDetourFactor,3
;   toolChangeRetractionDistance,12
;   toolChangeExtraRestartDistance,-0.5
;   toolChangeRetractionSpeed,600
;   externalThinWallType,0
;   internalThinWallType,2
;   thinWallAllowedOverlapPercentage,10
;   singleExtrusionMinLength,1
;   singleExtrusionMinPrintingWidthPercentage,50
;   singleExtrusionMaxPrintingWidthPercentage,200
;   singleExtrusionEndpointExtension,0.2
;   horizontalSizeCompensation,0
G90
M83
; **** Replicator 1 dual start.gcode ****
M73 P0 ; enable build progress
G162 X Y F3000 ; home XY maximum
G161 Z F1200 ; home Z minimum
G92 Z-5 ; set Z to -5
G1 Z0 ; move Z to 0
G161 Z F100 ; home Z slowly
M132 X Y Z A B ; recall home offsets
M135 T0 ; load right extruder offsets
G1 X150 Y-70 Z30 F9000 ; move to wait position right hand side of the table
G130 X20 Y20 Z20 A20 B20 ; lower stepper Vrefs while heating
M127
M140 S70 T0
M134 T0 ; stabilize bed temperature
M104 S225 T0
M133 T0 ; stabilize right extruder temperature
G130 X127 Y127 Z40 A127 B127 ; default stepper Vrefs
G92 A0 B0 ; zero extruders
G1 Z0.4 ; position nozzle
G1 X110 Y-70 E25 F300 ; purge nozzle
G1 X120 Y-70 Z0.15 F1200 ; slow wipe
G1 X110 Y-70 Z0.5 F1200 ; lift
G92 A0 B0 ; zero extruders
M73 P1 ;@body (notify GPX body has started)
; **** end of start.gcode ****
; process PLA - to octoprint
; layer 1, Z = 0.180
M135 T0
G1 E-1.0000 F1200
; feature skirt
; tool H0.180 W0.400
G1 Z0.180 F1200
G1 X-28.107 Y26.402 F4200
G1 E1.0000 F1200
G1 X-28.171 Y26.400 E0.0017 F1800
G1 X-29.443 Y26.338 E0.0343
G1 X-29.570 Y26.325 E0.0034
G1 X-30.861 Y26.133 E0.0352
G1 X-30.986 Y26.109 E0.0034
G1 X-32.253 Y25.791 E0.0352
G1 X-32.375 Y25.754 E0.0034
G1 X-33.604 Y25.315 E0.0352
G1 X-33.722 Y25.266 E0.0034
G1 X-34.902 Y24.708 E0.0352
G1 X-35.014 Y24.648 E0.0034
G1 X-36.134 Y23.976 E0.0352
G1 X-36.240 Y23.906 E0.0034
G1 X-37.288 Y23.128 E0.0352
G1 X-37.387 Y23.047 E0.0034
G1 X-38.354 Y22.170 E0.0352
G1 X-38.444 Y22.080 E0.0034
G1 X-39.321 Y21.113 E0.0352
G1 X-39.402 Y21.014 E0.0034
G1 X-40.179 Y19.966 E0.0352
G1 X-40.250 Y19.860 E0.0034
G1 X-40.921 Y18.740 E0.0352
G1 X-40.982 Y18.628 E0.0034
G1 X-41.540 Y17.448 E0.0352
G1 X-41.589 Y17.330 E0.0034
G1 X-42.028 Y16.101 E0.0352
G1 X-42.065 Y15.979 E0.0034
G1 X-42.382 Y14.712 E0.0352
G1 X-42.407 Y14.587 E0.0034
G1 X-42.599 Y13.296 E0.0352
G1 X-42.611 Y13.169 E0.0034
G1 X-42.674 Y11.897 E0.0343
G1 X-42.675 Y11.833 E0.0017
G1 X-42.675 Y-19.970 E0.8568
G1 X-42.674 Y-20.034 E0.0017
G1 X-42.611 Y-21.306 E0.0343
G1 X-42.599 Y-21.433 E0.0034
G1 X-42.407 Y-22.724 E0.0352
G1 X-42.382 Y-22.849 E0.0034
G1 X-42.065 Y-24.115 E0.0352
G1 X-42.028 Y-24.238 E0.0034
G1 X-41.589 Y-25.467 E0.0352
G1 X-41.540 Y-25.585 E0.0034
G1 X-40.982 Y-26.764 E0.0352
G1 X-40.921 Y-26.877 E0.0034
G1 X-40.250 Y-27.997 E0.0352
G1 X-40.179 Y-28.103 E0.0034
G1 X-39.402 Y-29.151 E0.0352
G1 X-39.321 Y-29.250 E0.0034
G1 X-38.444 Y-30.217 E0.0352
G1 X-38.354 Y-30.307 E0.0034
G1 X-37.387 Y-31.184 E0.0352
G1 X-37.288 Y-31.265 E0.0034
G1 X-36.240 Y-32.042 E0.0352
G1 X-36.134 Y-32.113 E0.0034
G1 X-35.014 Y-32.784 E0.0352
G1 X-34.902 Y-32.845 E0.0034
G1 X-33.719 Y-33.404 E0.0352
G1 X-33.596 Y-33.454 E0.0036
G1 X-32.315 Y-33.907 E0.0366
G1 X-32.198 Y-33.942 E0.0033
G1 X-30.986 Y-34.245 E0.0337
G1 X-30.861 Y-34.270 E0.0034
G1 X-29.570 Y-34.462 E0.0352
G1 X-29.443 Y-34.474 E0.0034
G1 X-28.171 Y-34.537 E0.0343
G1 X-28.107 Y-34.538 E0.0017
G1 X30.137 Y-34.538 E1.5691
G1 X30.200 Y-34.537 E0.0017
G1 X31.472 Y-34.474 E0.0343
G1 X31.599 Y-34.462 E0.0034
G1 X32.890 Y-34.270 E0.0352
G1 X33.016 Y-34.245 E0.0034
G1 X34.282 Y-33.928 E0.0352
G1 X34.404 Y-33.891 E0.0034
G1 X35.633 Y-33.451 E0.0352
G1 X35.751 Y-33.403 E0.0034
G1 X36.931 Y-32.845 E0.0352
G1 X37.043 Y-32.784 E0.0034
G1 X38.163 Y-32.113 E0.0352
G1 X38.269 Y-32.042 E0.0034
G1 X39.317 Y-31.265 E0.0352
G1 X39.416 Y-31.184 E0.0034
G1 X40.383 Y-30.307 E0.0352
G1 X40.474 Y-30.217 E0.0034
G1 X41.350 Y-29.250 E0.0352
G1 X41.431 Y-29.151 E0.0034
G1 X42.209 Y-28.103 E0.0352
G1 X42.280 Y-27.997 E0.0034
G1 X42.951 Y-26.877 E0.0352
G1 X43.011 Y-26.764 E0.0034
G1 X43.569 Y-25.585 E0.0352
G1 X43.618 Y-25.467 E0.0034
G1 X44.057 Y-24.238 E0.0352
G1 X44.094 Y-24.115 E0.0034
G1 X44.412 Y-22.849 E0.0352
G1 X44.437 Y-22.724 E0.0034
G1 X44.628 Y-21.433 E0.0352
G1 X44.641 Y-21.306 E0.0034
G1 X44.703 Y-20.034 E0.0343
G1 X44.705 Y-19.970 E0.0017
G1 X44.705 Y11.833 E0.8568
G1 X44.703 Y11.897 E0.0017
G1 X44.641 Y13.169 E0.0343
G1 X44.628 Y13.296 E0.0034
G1 X44.437 Y14.587 E0.0352
G1 X44.412 Y14.712 E0.0034
G1 X44.094 Y15.979 E0.0352
G1 X44.057 Y16.101 E0.0034
G1 X43.618 Y17.330 E0.0352
G1 X43.569 Y17.448 E0.0034
G1 X43.011 Y18.628 E0.0352
G1 X42.951 Y18.740 E0.0034
G1 X42.280 Y19.860 E0.0352
G1 X42.209 Y19.966 E0.0034
G1 X41.431 Y21.014 E0.0352
G1 X41.350 Y21.113 E0.0034
G1 X40.474 Y22.080 E0.0352
G1 X40.383 Y22.170 E0.0034
G1 X39.416 Y23.047 E0.0352
G1 X39.317 Y23.128 E0.0034
G1 X38.269 Y23.906 E0.0352
G1 X38.163 Y23.976 E0.0034
G1 X37.043 Y24.648 E0.0352
G1 X36.931 Y24.708 E0.0034
G1 X35.751 Y25.266 E0.0352
G1 X35.633 Y25.315 E0.0034
G1 X34.404 Y25.754 E0.0352
G1 X34.282 Y25.791 E0.0034
G1 X33.016 Y26.109 E0.0352
G1 X32.890 Y26.133 E0.0034
G1 X31.599 Y26.325 E0.0352
G1 X31.472 Y26.338 E0.0034
G1 X30.200 Y26.400 E0.0343
G1 X30.137 Y26.402 E0.0017
G1 X-28.107 Y26.402 E1.5691
G1 E-1.0000 F1200
G1 X-28.102 Y26.002 F4200
G1 E1.0000 F1200
G1 X-28.156 Y26.000 E0.0015 F1800
G1 X-29.414 Y25.938 E0.0339
G1 X-29.521 Y25.928 E0.0029
G1 X-30.793 Y25.739 E0.0346
G1 X-30.899 Y25.718 E0.0029
G1 X-32.146 Y25.406 E0.0346
G1 X-32.249 Y25.374 E0.0029
G1 X-33.460 Y24.941 E0.0346
G1 X-33.559 Y24.900 E0.0029
G1 X-34.722 Y24.350 E0.0346
G1 X-34.817 Y24.299 E0.0029
G1 X-35.920 Y23.638 E0.0346
G1 X-36.009 Y23.578 E0.0029
G1 X-37.042 Y22.813 E0.0346
G1 X-37.126 Y22.744 E0.0029
G1 X-38.078 Y21.881 E0.0346
G1 X-38.155 Y21.804 E0.0029
G1 X-39.018 Y20.852 E0.0346
G1 X-39.086 Y20.768 E0.0029
G1 X-39.852 Y19.736 E0.0346
G1 X-39.912 Y19.646 E0.0029
G1 X-40.573 Y18.543 E0.0346
G1 X-40.624 Y18.448 E0.0029
G1 X-41.174 Y17.286 E0.0346
G1 X-41.215 Y17.186 E0.0029
G1 X-41.648 Y15.975 E0.0346
G1 X-41.680 Y15.872 E0.0029
G1 X-41.992 Y14.625 E0.0346
G1 X-42.013 Y14.519 E0.0029
G1 X-42.202 Y13.247 E0.0346
G1 X-42.212 Y13.140 E0.0029
G1 X-42.274 Y11.883 E0.0339
G1 X-42.275 Y11.829 E0.0015
G1 X-42.275 Y-19.965 E0.8566
G1 X-42.274 Y-20.019 E0.0015
G1 X-42.212 Y-21.276 E0.0339
G1 X-42.202 Y-21.384 E0.0029
G1 X-42.013 Y-22.656 E0.0346
G1 X-41.992 Y-22.762 E0.0029
G1 X-41.680 Y-24.009 E0.0346
G1 X-41.648 Y-24.112 E0.0029
G1 X-41.215 Y-25.323 E0.0346
G1 X-41.174 Y-25.422 E0.0029
G1 X-40.624 Y-26.585 E0.0346
G1 X-40.573 Y-26.680 E0.0029
G1 X-39.912 Y-27.783 E0.0346
G1 X-39.852 Y-27.872 E0.0029
G1 X-39.086 Y-28.905 E0.0346
G1 X-39.018 Y-28.989 E0.0029
G1 X-38.155 Y-29.941 E0.0346
G1 X-38.078 Y-30.017 E0.0029
G1 X-37.126 Y-30.881 E0.0346
G1 X-37.042 Y-30.949 E0.0029
G1 X-36.009 Y-31.715 E0.0346
G1 X-35.920 Y-31.775 E0.0029
G1 X-34.817 Y-32.436 E0.0346
G1 X-34.722 Y-32.487 E0.0029
G1 X-33.557 Y-33.038 E0.0347
G1 X-33.453 Y-33.081 E0.0030
G1 X-32.191 Y-33.526 E0.0361
G1 X-32.092 Y-33.556 E0.0028
G1 X-30.899 Y-33.855 E0.0331
G1 X-30.793 Y-33.876 E0.0029
G1 X-29.521 Y-34.065 E0.0346
G1 X-29.414 Y-34.075 E0.0029
G1 X-28.156 Y-34.137 E0.0339
G1 X-28.102 Y-34.138 E0.0015
G1 X30.132 Y-34.138 E1.5689
G1 X30.186 Y-34.137 E0.0015
G1 X31.443 Y-34.075 E0.0339
G1 X31.550 Y-34.065 E0.0029
G1 X32.822 Y-33.876 E0.0346
G1 X32.928 Y-33.855 E0.0029
G1 X34.175 Y-33.543 E0.0346
G1 X34.278 Y-33.511 E0.0029
G1 X35.489 Y-33.078 E0.0346
G1 X35.589 Y-33.037 E0.0029
G1 X36.751 Y-32.487 E0.0346
G1 X36.846 Y-32.436 E0.0029
G1 X37.949 Y-31.775 E0.0346
G1 X38.039 Y-31.715 E0.0029
G1 X39.071 Y-30.949 E0.0346
G1 X39.155 Y-30.881 E0.0029
G1 X40.107 Y-30.017 E0.0346
G1 X40.184 Y-29.941 E0.0029
G1 X41.047 Y-28.989 E0.0346
G1 X41.116 Y-28.905 E0.0029
G1 X41.881 Y-27.872 E0.0346
G1 X41.941 Y-27.783 E0.0029
G1 X42.602 Y-26.680 E0.0346
G1 X42.653 Y-26.585 E0.0029
G1 X43.203 Y-25.422 E0.0346
G1 X43.244 Y-25.323 E0.0029
G1 X43.677 Y-24.112 E0.0346
G1 X43.709 Y-24.009 E0.0029
G1 X44.021 Y-22.762 E0.0346
G1 X44.042 Y-22.656 E0.0029
G1 X44.231 Y-21.384 E0.0346
G1 X44.242 Y-21.276 E0.0029
G1 X44.303 Y-20.019 E0.0339
G1 X44.305 Y-19.965 E0.0015
G1 X44.305 Y11.829 E0.8566
G1 X44.303 Y11.883 E0.0015
G1 X44.242 Y13.140 E0.0339
G1 X44.231 Y13.247 E0.0029
G1 X44.042 Y14.519 E0.0346
G1 X44.021 Y14.625 E0.0029
G1 X43.709 Y15.872 E0.0346
G1 X43.677 Y15.975 E0.0029
G1 X43.244 Y17.186 E0.0346
G1 X43.203 Y17.286 E0.0029
G1 X42.653 Y18.448 E0.0346
G1 X42.602 Y18.543 E0.0029
G1 X41.941 Y19.646 E0.0346
G1 X41.881 Y19.736 E0.0029
G1 X41.116 Y20.768 E0.0346
G1 X41.047 Y20.852 E0.0029
G1 X40.184 Y21.804 E0.0346
G1 X40.107 Y21.881 E0.0029
G1 X39.155 Y22.744 E0.0346
G1 X39.071 Y22.813 E0.0029
G1 X38.039 Y23.578 E0.0346
G1 X37.949 Y23.638 E0.0029
G1 X36.846 Y24.299 E0.0346
G1 X36.751 Y24.350 E0.0029
G1 X35.589 Y24.900 E0.0346
G1 X35.489 Y24.941 E0.0029
G1 X34.278 Y25.374 E0.0346
G1 X34.175 Y25.406 E0.0029
G1 X32.928 Y25.718 E0.0346
G1 X32.822 Y25.739 E0.0029
G1 X31.550 Y25.928 E0.0346
G1 X31.443 Y25.938 E0.0029
G1 X30.186 Y26.000 E0.0339
G1 X30.132 Y26.002 E0.0015
G1 X-28.102 Y26.002 E1.5689
G1 E-1.0000 F1200
; feature inner perimeter
G1 X-28.061 Y23.202 F4200
G1 E1.0000 F1200
G1 X-29.193 Y23.146 E0.0305 F1350
G1 X-30.299 Y22.982 E0.0301
G1 X-31.384 Y22.710 E0.0301
G1 X-32.438 Y22.333 E0.0301
G1 X-33.449 Y21.855 E0.0301
G1 X-34.409 Y21.280 E0.0301
G1 X-35.307 Y20.613 E0.0301
G1 X-36.136 Y19.862 E0.0301
