; G-Code generated by Simplify3D(R) Version 4.1.2
; Aug 30, 2020 at 1:07:04 PM
; Settings Summary
;   processName,PLA - to octoprint
;   applyToModels,d7852776-f5cd-4e3f-9b59-afaf32249ecc
;   profileName,FlashForge Creator Pro (PLA Andy)
;   profileVersion,2018-01-19 08:00:00
;   baseProfile,FlashForge Creator Pro (modified)
;   printMaterial,PLA
;   printQuality,Medium
;   printExtruders,Right Extruder Only
;   extruderName,Right Extruder,Left Extruder
;   extruderToolheadNumber,0,1
;   extruderDiameter,0.4,0.4
;   extruderAutoWidth,0,0
;   extruderWidth,0.4,0.4
;   extrusionMultiplier,0.9,0.9
;   extruderUseRetract,1,1
;   extruderRetractionDistance,1,1
;   extruderExtraRestartDistance,0,0
;   extruderRetractionZLift,0,0
;   extruderRetractionSpeed,1200,1200
;   extruderUseCoasting,0,0
;   extruderCoastingDistance,0.2,0.2
;   extruderUseWipe,0,0
;   extruderWipeDistance,5,5
;   primaryExtruder,0
;   layerHeight,0.2
;   topSolidLayers,3
;   bottomSolidLayers,3
;   perimeterOutlines,2
;   printPerimetersInsideOut,1
;   startPointOption,2
;   startPointOriginX,0
;   startPointOriginY,0
;   sequentialIslands,0
;   spiralVaseMode,0
;   firstLayerHeightPercentage,90
;   firstLayerWidthPercentage,100
;   firstLayerUnderspeed,0.5
;   useRaft,0
;   raftExtruder,0
;   raftTopLayers,3
;   raftBaseLayers,2
;   raftOffset,3
;   raftSeparationDistance,0.14
;   raftTopInfill,100
;   aboveRaftSpeedMultiplier,0.3
;   useSkirt,1
;   skirtExtruder,0
;   skirtLayers,1
;   skirtOutlines,2
;   skirtOffset,2
;   usePrimePillar,0
;   primePillarExtruder,999
;   primePillarWidth,12
;   primePillarLocation,7
;   primePillarSpeedMultiplier,1
;   useOozeShield,0
;   oozeShieldExtruder,999
;   oozeShieldOffset,2
;   oozeShieldOutlines,1
;   oozeShieldSidewallShape,1
;   oozeShieldSidewallAngle,30
;   oozeShieldSpeedMultiplier,1
;   infillExtruder,0
;   internalInfillPattern,Rectilinear
;   externalInfillPattern,Rectilinear
;   infillPercentage,20
;   outlineOverlapPercentage,20
;   infillExtrusionWidthPercentage,100
;   minInfillLength,5
;   infillLayerInterval,1
;   internalInfillAngles,45,-45
;   overlapInternalInfillAngles,0
;   externalInfillAngles,45,-45
;   generateSupport,1
;   supportExtruder,0
;   supportInfillPercentage,35
;   supportExtraInflation,0
;   supportBaseLayers,0
;   denseSupportExtruder,0
;   denseSupportLayers,0
;   denseSupportInfillPercentage,70
;   supportLayerInterval,1
;   supportHorizontalPartOffset,0.3
;   supportUpperSeparationLayers,1
;   supportLowerSeparationLayers,1
;   supportType,0
;   supportGridSpacing,4
;   maxOverhangAngle,45
;   supportAngles,0
;   temperatureName,Right Extruder,Left Extruder,Heated Build Platform
;   temperatureNumber,0,1,0
;   temperatureSetpointCount,1,1,1
;   temperatureSetpointLayers,1,1,1
;   temperatureSetpointTemperatures,225,0,70
;   temperatureStabilizeAtStartup,0,0,0
;   temperatureHeatedBed,0,0,1
;   fanLayers,1,2
;   fanSpeeds,0,100
;   blipFanToFullPower,0
;   adjustSpeedForCooling,1
;   minSpeedLayerTime,15
;   minCoolingSpeedSlowdown,20
;   increaseFanForCooling,0
;   minFanLayerTime,45
;   maxCoolingFanSpeed,100
;   increaseFanForBridging,1
;   bridgingFanSpeed,100
;   use5D,1
;   relativeEdistances,1
;   allowEaxisZeroing,0
;   independentExtruderAxes,1
;   includeM10123,0
;   stickySupport,1
;   applyToolheadOffsets,0
;   gcodeXoffset,0
;   gcodeYoffset,0
;   gcodeZoffset,0
;   overrideMachineDefinition,1
;   machineTypeOverride,0
;   strokeXoverride,225
;   strokeYoverride,145
;   strokeZoverride,150
;   originOffsetXoverride,112.5
;   originOffsetYoverride,72.5
;   originOffsetZoverride,0
;   homeXdirOverride,1
;   homeYdirOverride,1
;   homeZdirOverride,-1
;   flipXoverride,1
;   flipYoverride,-1
;   flipZoverride,1
;   toolheadOffsets,0,0|34,0|0,0|0,0|0,0|0,0
;   overrideFirmwareConfiguration,1
;   firmwareTypeOverride,MakerBot/Sailfish Firmware
;   GPXconfigOverride,r1d
;   baudRateOverride,115200
;   overridePrinterModels,1
;   printerModelsOverride,FlashForge_CreatorPro.stl
;   startingGcode,; **** Replicator 1 dual start.gcode ****,M73 P0 ; enable build progress,G162 X Y F3000 ; home XY maximum,G161 Z F1200 ; home Z minimum,G92 Z-5 ; set Z to -5,G1 Z0 ; move Z to 0,G161 Z F100 ; home Z slowly,M132 X Y Z A B ; recall home offsets,M135 T0 ; load right extruder offsets,G1 X150 Y-70 Z30 F9000 ; move to wait position right hand side of the table,G130 X20 Y20 Z20 A20 B20 ; lower stepper Vrefs while heating,M126 S[fan_speed_pwm],M140 S[bed0_temperature] T0,M134 T0 ; stabilize bed temperature,M104 S[extruder0_temperature] T0,M133 T0 ; stabilize right extruder temperature,G130 X127 Y127 Z40 A127 B127 ; default stepper Vrefs,G92 A0 B0 ; zero extruders,G1 Z0.4 ; position nozzle,G1 X110 Y-70 E25 F300 ; purge nozzle,G1 X120 Y-70 Z0.15 F1200 ; slow wipe,G1 X110 Y-70 Z0.5 F1200 ; lift,G92 A0 B0 ; zero extruders,M73 P1 ;@body (notify GPX body has started),; **** end of start.gcode ****
;   layerChangeGcode,
;   retractionGcode,
;   toolChangeGcode,
;   endingGcode,; **** Replicator 1 dual end.gcode ****,M73 P100 ; end build progress,G1 Z150 F1000 ; send Z axis to bottom of machine,M140 S0 T0 ; cool down HBP,M104 S0 T0 ; cool down right extruder,M104 S0 T1 ; cool down left extruder,M127 ; stop blower fan,G162 X Y F3000 ; home XY maximum,M18 ; disable stepper,M72 P1 ; play Ta-Da song,; **** end of end.gcode ****
;   exportFileFormat,gcode
;   celebration,0
;   celebrationSong,Random Song
;   postProcessing,curl -k -H "X-Api-Key: 85DEF5B2510A4D0EA04F35E17A7FFD7E" -F "select=false" -F "print=false" -F "file=@[output_filepath]" "http://192.168.0.125/api/files/local" {STRIP "; postProcessing"}
;   defaultSpeed,3600
;   outlineUnderspeed,0.5
;   solidInfillUnderspeed,0.8
;   supportUnderspeed,0.8
;   rapidXYspeed,4200
;   rapidZspeed,1200
;   minBridgingArea,50
;   bridgingExtraInflation,0
;   bridgingExtrusionMultiplier,1
;   bridgingSpeedMultiplier,0.8
;   useFixedBridgingAngle,0
;   fixedBridgingAngle,0
;   applyBridgingToPerimeters,0
;   filamentDiameters,1.75|1.75|1.75|1.75|1.75|1.75
;   filamentPricesPerKg,46|46|46|46|46|46
;   filamentDensities,1.25|1.25|1.25|1.25|1.25|1.25
;   useMinPrintHeight,0
;   minPrintHeight,0
;   useMaxPrintHeight,0
;   maxPrintHeight,0
;   useDiaphragm,0
;   diaphragmLayerInterval,20
;   robustSlicing,1
;   mergeAllIntoSolid,0
;   onlyRetractWhenCrossingOutline,1
;   retractBetweenLayers,1
;   useRetractionMinTravel,0
;   retractionMinTravel,3
;   retractWhileWiping,0
;   onlyWipeOutlines,1
;   avoidCrossingOutline,0
;   maxMovementDetourFactor,3
;   toolChangeRetractionDistance,12
;   toolChangeExtraRestartDistance,-0.5
;   toolChangeRetractionSpeed,600
;   externalThinWallType,0
;   internalThinWallType,2
;   thinWallAllowedOverlapPercentage,10
;   singleExtrusionMinLength,1
;   singleExtrusionMinPrintingWidthPercentage,50
;   singleExtrusionMaxPrintingWidthPercentage,200
;   singleExtrusionEndpointExtension,0.2
;   horizontalSizeCompensation,0
G90
M83
; **** Replicator 1 dual start.gcode ****
M73 P0 ; enable build progress
G162 X Y F3000 ; home XY maximum
G161 Z F1200 ; home Z minimum
G92 Z-5 ; set Z to -5
G1 Z0 ; move Z to 0
G161 Z F100 ; home Z slowly
M132 X Y Z A B ; recall home offsets
M135 T0 ; load right extruder offsets
G1 X150 Y-70 Z30 F9000 ; move to wait position right hand side of the table
G130 X20 Y20 Z20 A20 B20 ; lower stepper Vrefs while heating
M127
M140 S70 T0
M134 T0 ; stabilize bed temperature
M104 S225 T0
M133 T0 ; stabilize right extruder temperature
G130 X127 Y127 Z40 A127 B127 ; default stepper Vrefs
G92 A0 B0 ; zero extruders
G1 Z0.4 ; position nozzle
G1 X110 Y-70 E25 F300 ; purge nozzle
G1 X120 Y-70 Z0.15 F1200 ; slow wipe
G1 X110 Y-70 Z0.5 F1200 ; lift
G92 A0 B0 ; zero extruders
M73 P1 ;@body (notify GPX body has started)
; **** end of start.gcode ****
; process PLA - to octoprint
; layer 1, Z = 0.180
M135 T0
G1 E-1.0000 F1200
; feature skirt
; tool H0.180 W0.400
G1 Z0.180 F1200
G1 X-28.570 Y-28.919 F4200
G1 E1.0000 F1200
G1 X29.666 Y-28.919 E1.5689 F1800
G1 X29.723 Y-28.917 E0.0015
G1 X30.854 Y-28.868 E0.0305
G1 X30.967 Y-28.858 E0.0031
G1 X32.117 Y-28.707 E0.0313
G1 X32.229 Y-28.687 E0.0031
G1 X33.362 Y-28.436 E0.0313
G1 X33.472 Y-28.407 E0.0031
G1 X34.578 Y-28.058 E0.0313
G1 X34.685 Y-28.019 E0.0031
G1 X35.757 Y-27.575 E0.0313
G1 X35.860 Y-27.527 E0.0031
G1 X36.889 Y-26.991 E0.0313
G1 X36.987 Y-26.934 E0.0031
G1 X37.966 Y-26.311 E0.0313
G1 X38.059 Y-26.246 E0.0031
G1 X38.979 Y-25.539 E0.0313
G1 X39.066 Y-25.466 E0.0031
G1 X39.922 Y-24.683 E0.0313
G1 X40.002 Y-24.602 E0.0031
G1 X40.786 Y-23.747 E0.0313
G1 X40.859 Y-23.660 E0.0031
G1 X41.565 Y-22.739 E0.0313
G1 X41.630 Y-22.646 E0.0031
G1 X42.254 Y-21.668 E0.0313
G1 X42.310 Y-21.570 E0.0031
G1 X42.846 Y-20.540 E0.0313
G1 X42.894 Y-20.438 E0.0031
G1 X43.338 Y-19.365 E0.0313
G1 X43.377 Y-19.259 E0.0031
G1 X43.726 Y-18.152 E0.0313
G1 X43.755 Y-18.043 E0.0031
G1 X44.006 Y-16.910 E0.0313
G1 X44.026 Y-16.798 E0.0031
G1 X44.059 Y-16.548 E0.0068
G1 X44.090 Y-16.541 E0.0009
G1 X44.208 Y-16.510 E0.0033
G1 X45.218 Y-16.192 E0.0285
G1 X45.333 Y-16.150 E0.0033
G1 X46.308 Y-15.738 E0.0285
G1 X46.418 Y-15.686 E0.0033
G1 X47.351 Y-15.185 E0.0285
G1 X47.456 Y-15.122 E0.0033
G1 X48.338 Y-14.536 E0.0285
G1 X48.436 Y-14.464 E0.0033
G1 X49.259 Y-13.798 E0.0285
G1 X49.350 Y-13.717 E0.0033
G1 X50.108 Y-12.976 E0.0285
G1 X50.191 Y-12.887 E0.0033
G1 X50.875 Y-12.079 E0.0285
G1 X50.950 Y-11.983 E0.0033
G1 X51.556 Y-11.115 E0.0285
G1 X51.621 Y-11.011 E0.0033
G1 X52.143 Y-10.090 E0.0285
G1 X52.198 Y-9.981 E0.0033
G1 X52.631 Y-9.015 E0.0285
G1 X52.676 Y-8.902 E0.0033
G1 X53.017 Y-7.899 E0.0285
G1 X53.051 Y-7.782 E0.0033
G1 X53.297 Y-6.752 E0.0285
G1 X53.320 Y-6.633 E0.0033
G1 X53.468 Y-5.584 E0.0285
G1 X53.480 Y-5.463 E0.0033
G1 X53.528 Y-4.435 E0.0277
G1 X53.529 Y-4.374 E0.0016
G1 X53.529 Y7.477 E0.3193
G1 X53.528 Y7.538 E0.0016
G1 X53.480 Y8.565 E0.0277
G1 X53.468 Y8.687 E0.0033
G1 X53.320 Y9.735 E0.0285
G1 X53.297 Y9.855 E0.0033
G1 X53.051 Y10.885 E0.0285
G1 X53.017 Y11.002 E0.0033
G1 X52.676 Y12.004 E0.0285
G1 X52.631 Y12.118 E0.0033
G1 X52.198 Y13.084 E0.0285
G1 X52.143 Y13.193 E0.0033
G1 X51.621 Y14.114 E0.0285
G1 X51.556 Y14.217 E0.0033
G1 X50.950 Y15.085 E0.0285
G1 X50.875 Y15.182 E0.0033
G1 X50.191 Y15.990 E0.0285
G1 X50.108 Y16.079 E0.0033
G1 X49.350 Y16.819 E0.0285
G1 X49.259 Y16.900 E0.0033
G1 X48.436 Y17.566 E0.0285
G1 X48.338 Y17.638 E0.0033
G1 X47.456 Y18.225 E0.0285
G1 X47.351 Y18.287 E0.0033
G1 X46.418 Y18.788 E0.0285
G1 X46.308 Y18.841 E0.0033
G1 X45.333 Y19.252 E0.0285
G1 X45.218 Y19.294 E0.0033
G1 X44.208 Y19.612 E0.0285
G1 X44.090 Y19.644 E0.0033
G1 X44.059 Y19.650 E0.0009
G1 X44.026 Y19.901 E0.0068
G1 X44.006 Y20.012 E0.0031
G1 X43.755 Y21.145 E0.0313
G1 X43.726 Y21.255 E0.0031
G1 X43.377 Y22.361 E0.0313
G1 X43.338 Y22.468 E0.0031
G1 X42.894 Y23.540 E0.0313
G1 X42.846 Y23.643 E0.0031
G1 X42.310 Y24.672 E0.0313
G1 X42.254 Y24.770 E0.0031
G1 X41.630 Y25.749 E0.0313
G1 X41.565 Y25.842 E0.0031
G1 X40.859 Y26.762 E0.0313
G1 X40.786 Y26.849 E0.0031
G1 X40.002 Y27.705 E0.0313
G1 X39.922 Y27.785 E0.0031
G1 X39.066 Y28.569 E0.0313
G1 X38.979 Y28.642 E0.0031
G1 X38.059 Y29.348 E0.0313
G1 X37.966 Y29.413 E0.0031
G1 X36.987 Y30.037 E0.0313
G1 X36.889 Y30.094 E0.0031
G1 X35.860 Y30.629 E0.0313
G1 X35.757 Y30.677 E0.0031
G1 X34.685 Y31.121 E0.0313
G1 X34.578 Y31.160 E0.0031
G1 X33.472 Y31.509 E0.0313
G1 X33.362 Y31.538 E0.0031
G1 X32.229 Y31.790 E0.0313
G1 X32.117 Y31.809 E0.0031
G1 X30.967 Y31.961 E0.0313
G1 X30.854 Y31.971 E0.0031
G1 X29.723 Y32.020 E0.0305
G1 X29.666 Y32.021 E0.0015
G1 X-28.570 Y32.021 E1.5689
G1 X-28.627 Y32.020 E0.0015
G1 X-29.758 Y31.971 E0.0305
G1 X-29.871 Y31.961 E0.0031
G1 X-31.021 Y31.809 E0.0313
G1 X-31.133 Y31.790 E0.0031
G1 X-32.266 Y31.538 E0.0313
G1 X-32.376 Y31.509 E0.0031
G1 X-33.482 Y31.160 E0.0313
G1 X-33.589 Y31.121 E0.0031
G1 X-34.661 Y30.677 E0.0313
G1 X-34.764 Y30.629 E0.0031
G1 X-35.793 Y30.094 E0.0313
G1 X-35.891 Y30.037 E0.0031
G1 X-36.870 Y29.413 E0.0313
G1 X-36.963 Y29.348 E0.0031
G1 X-37.879 Y28.645 E0.0311
G1 X-37.966 Y28.572 E0.0030
G1 X-38.825 Y27.786 E0.0314
G1 X-38.906 Y27.705 E0.0031
G1 X-39.690 Y26.849 E0.0313
G1 X-39.763 Y26.762 E0.0031
G1 X-40.469 Y25.842 E0.0313
G1 X-40.534 Y25.749 E0.0031
G1 X-41.158 Y24.770 E0.0313
G1 X-41.214 Y24.672 E0.0031
G1 X-41.748 Y23.647 E0.0311
G1 X-41.796 Y23.545 E0.0030
G1 X-42.242 Y22.469 E0.0314
G1 X-42.281 Y22.362 E0.0031
G1 X-42.630 Y21.255 E0.0313
G1 X-42.659 Y21.145 E0.0031
G1 X-42.910 Y20.012 E0.0313
G1 X-42.930 Y19.901 E0.0031
G1 X-42.963 Y19.650 E0.0068
G1 X-42.994 Y19.644 E0.0009
G1 X-43.112 Y19.612 E0.0033
G1 X-44.122 Y19.294 E0.0285
G1 X-44.237 Y19.252 E0.0033
G1 X-45.212 Y18.841 E0.0285
G1 X-45.322 Y18.788 E0.0033
G1 X-46.255 Y18.287 E0.0285
G1 X-46.360 Y18.225 E0.0033
G1 X-47.242 Y17.638 E0.0285
G1 X-47.340 Y17.566 E0.0033
G1 X-48.163 Y16.900 E0.0285
G1 X-48.254 Y16.819 E0.0033
G1 X-49.012 Y16.079 E0.0285
G1 X-49.095 Y15.990 E0.0033
G1 X-49.779 Y15.182 E0.0285
G1 X-49.854 Y15.085 E0.0033
G1 X-50.460 Y14.217 E0.0285
G1 X-50.525 Y14.114 E0.0033
G1 X-51.047 Y13.193 E0.0285
G1 X-51.102 Y13.084 E0.0033
G1 X-51.536 Y12.118 E0.0285
G1 X-51.580 Y12.004 E0.0033
G1 X-51.921 Y11.002 E0.0285
G1 X-51.955 Y10.885 E0.0033
G1 X-52.201 Y9.855 E0.0285
G1 X-52.224 Y9.735 E0.0033
G1 X-52.372 Y8.687 E0.0285
G1 X-52.384 Y8.565 E0.0033
G1 X-52.432 Y7.538 E0.0277
G1 X-52.433 Y7.477 E0.0016
G1 X-52.433 Y-4.374 E0.3193
G1 X-52.432 Y-4.435 E0.0016
G1 X-52.384 Y-5.463 E0.0277
G1 X-52.372 Y-5.584 E0.0033
G1 X-52.224 Y-6.632 E0.0285
G1 X-52.201 Y-6.752 E0.0033
G1 X-51.955 Y-7.782 E0.0285
G1 X-51.921 Y-7.899 E0.0033
G1 X-51.580 Y-8.902 E0.0285
G1 X-51.536 Y-9.015 E0.0033
G1 X-51.102 Y-9.981 E0.0285
G1 X-51.047 Y-10.090 E0.0033
G1 X-50.525 Y-11.011 E0.0285
G1 X-50.460 Y-11.114 E0.0033
G1 X-49.854 Y-11.983 E0.0285
G1 X-49.779 Y-12.079 E0.0033
G1 X-49.095 Y-12.887 E0.0285
G1 X-49.012 Y-12.976 E0.0033
G1 X-48.254 Y-13.717 E0.0285
G1 X-48.163 Y-13.798 E0.0033
G1 X-47.340 Y-14.464 E0.0285
G1 X-47.242 Y-14.536 E0.0033
G1 X-46.360 Y-15.122 E0.0285
G1 X-46.255 Y-15.185 E0.0033
G1 X-45.322 Y-15.686 E0.0285
G1 X-45.212 Y-15.738 E0.0033
G1 X-44.237 Y-16.150 E0.0285
G1 X-44.122 Y-16.192 E0.0033
G1 X-43.112 Y-16.510 E0.0285
G1 X-42.994 Y-16.541 E0.0033
G1 X-42.963 Y-16.548 E0.0009
G1 X-42.930 Y-16.798 E0.0068
G1 X-42.910 Y-16.910 E0.0031
G1 X-42.659 Y-18.043 E0.0313
G1 X-42.630 Y-18.152 E0.0031
G1 X-42.281 Y-19.259 E0.0313
G1 X-42.242 Y-19.366 E0.0031
G1 X-41.798 Y-20.438 E0.0313
G1 X-41.750 Y-20.540 E0.0031
G1 X-41.214 Y-21.570 E0.0313
G1 X-41.158 Y-21.668 E0.0031
G1 X-40.534 Y-22.646 E0.0313
G1 X-40.469 Y-22.739 E0.0031
G1 X-39.763 Y-23.660 E0.0313
G1 X-39.690 Y-23.747 E0.0031
G1 X-38.906 Y-24.602 E0.0313
G1 X-38.826 Y-24.683 E0.0031
G1 X-37.970 Y-25.467 E0.0313
G1 X-37.883 Y-25.539 E0.0031
G1 X-36.963 Y-26.246 E0.0313
G1 X-36.870 Y-26.311 E0.0031
G1 X-35.891 Y-26.934 E0.0313
G1 X-35.792 Y-26.991 E0.0031
G1 X-34.759 Y-27.529 E0.0314
G1 X-34.656 Y-27.577 E0.0030
G1 X-33.589 Y-28.019 E0.0311
G1 X-33.482 Y-28.058 E0.0031
G1 X-32.376 Y-28.407 E0.0313
G1 X-32.266 Y-28.436 E0.0031
G1 X-31.133 Y-28.687 E0.0313
G1 X-31.021 Y-28.707 E0.0031
G1 X-29.871 Y-28.858 E0.0313
G1 X-29.758 Y-28.868 E0.0031
G1 X-28.627 Y-28.917 E0.0305
G1 X-28.570 Y-28.919 E0.0015
G1 E-1.0000 F1200
G1 X-28.566 Y-28.519 F4200
G1 E1.0000 F1200
G1 X29.662 Y-28.519 E1.5687 F1800
G1 X29.710 Y-28.518 E0.0013
G1 X30.828 Y-28.469 E0.0301
G1 X30.923 Y-28.460 E0.0026
G1 X32.057 Y-28.311 E0.0308
G1 X32.151 Y-28.295 E0.0026
G1 X33.267 Y-28.047 E0.0308
G1 X33.360 Y-28.022 E0.0026
G1 X34.450 Y-27.679 E0.0308
G1 X34.540 Y-27.646 E0.0026
G1 X35.596 Y-27.209 E0.0308
G1 X35.683 Y-27.168 E0.0026
G1 X36.696 Y-26.640 E0.0308
G1 X36.780 Y-26.592 E0.0026
G1 X37.743 Y-25.978 E0.0308
G1 X37.822 Y-25.923 E0.0026
G1 X38.729 Y-25.227 E0.0308
G1 X38.802 Y-25.166 E0.0026
G1 X39.645 Y-24.394 E0.0308
G1 X39.713 Y-24.326 E0.0026
G1 X40.485 Y-23.483 E0.0308
G1 X40.547 Y-23.410 E0.0026
G1 X41.242 Y-22.503 E0.0308
G1 X41.297 Y-22.424 E0.0026
G1 X41.912 Y-21.460 E0.0308
